frontend/public/svg/files/file.svg

<svg width="142" height="174" viewBox="0 0 142 174" fill="none" xmlns="http://www.w3.org/2000/svg">
<g clip-path="url(#clip0)">
<path d="M140.706 92.3298C140.886 108.835 141.126 125.338 141.213 141.843C141.243 147.677 140.788 153.511 140.753 159.346C140.7 167.698 134.214 172.787 126.593 172.948C111.104 173.276 95.6089 173.64 80.1186 173.562C61.9276 173.47 43.7371 172.994 25.5506 172.522C21.2908 172.308 17.0463 171.854 12.8375 171.163C7.70298 170.445 2.6321 164.564 2.4457 158.972C1.97379 144.837 1.4408 130.701 1.28525 116.56C0.942638 85.45 0.875094 54.3395 0.544303 23.233C0.493765 18.4555 0.603277 13.8243 2.57886 9.40122C4.0543 6.0939 6.15658 3.40274 9.82486 2.40773C11.123 2.06773 12.4551 1.87408 13.7964 1.83023C19.517 1.60182 25.2482 1.58308 30.9616 1.24375C50.7233 0.0689097 70.4823 0.498873 90.244 1.15915C92.935 1.24907 95.6325 1.39638 98.3209 1.31105C99.3868 1.28074 100.447 1.46464 101.44 1.85202C102.434 2.2394 103.339 2.8221 104.103 3.56594C114.257 12.5919 124.35 21.6889 134.623 30.5784C138.173 33.6513 139.392 37.2227 139.439 41.8098C139.614 58.6521 140.078 75.4921 140.432 92.3331L140.706 92.3298ZM93.4042 9.47105C91.4287 9.3155 89.7701 9.0955 88.1082 9.06727C73.9648 8.82968 59.8208 8.61329 45.6754 8.41862C39.2814 8.33067 32.886 8.29201 26.4913 8.25263C23.2424 8.23294 19.9856 8.13075 16.7452 8.29877C12.2211 8.53374 10.8218 9.83762 10.0086 14.2712C9.19694 18.4648 9.00483 22.755 9.43834 27.0044C9.70554 29.459 9.83989 31.9261 9.8412 34.3952C9.90946 74.0252 9.96092 113.656 9.99551 153.285C9.97477 154.071 10.0048 154.857 10.0854 155.639C10.7588 160.742 13.4538 164.163 19.2525 164.393C40.9169 165.246 62.5812 165.255 84.2523 164.888C95.1409 164.703 106.032 164.611 116.922 164.487C119.501 164.457 122.085 164.558 124.659 164.442C129.821 164.208 132.053 161.995 132.01 156.939C131.931 148.078 131.709 139.218 131.53 130.357C131.438 125.756 131.343 121.153 131.186 116.555C130.817 105.674 130.233 94.7969 130.067 83.9136C129.881 71.7916 130.067 59.6645 130.076 47.5393C130.076 46.6762 129.989 45.8134 129.941 44.9287C129.561 44.8377 129.175 44.7763 128.786 44.7453C121.94 44.8825 115.094 45.0983 108.247 45.1389C106.117 45.1552 103.992 44.9109 101.921 44.4108C97.6934 43.3718 96.3617 41.7401 95.9147 37.4116C95.5117 33.5063 95.2505 29.5862 94.9 25.6751C94.4281 20.4355 93.9326 15.1937 93.4042 9.47105ZM124.81 35.8495C124.857 35.6129 124.903 35.3759 124.949 35.1387L102.721 14.9704L102.209 15.305C103.3 22.4703 104.391 29.6356 105.515 37.0141L124.81 35.8495Z" fill="black"/>
</g>
<defs>
<clipPath id="clip0">
<rect width="141.113" height="173.93" fill="white" transform="translate(0.109375 0.0107422)"/>
</clipPath>
</defs>
</svg>

<svg xmlns="http://www.w3.org/2000/svg" width="142" height="174" fill="none" viewBox="0 0 142 174"><g clip-path="url(#a)"><path fill="#000" d="M140.706 92.33c.18 16.505.42 33.008.507 49.513.03 5.834-.425 11.668-.46 17.503-.053 8.352-6.539 13.441-14.16 13.602-15.489.328-30.984.692-46.474.614-18.191-.092-36.382-.568-54.568-1.04a114 114 0 0 1-12.713-1.359c-5.135-.718-10.206-6.599-10.392-12.191-.472-14.135-1.005-28.271-1.16-42.412C.942 85.45.875 54.34.543 23.233c-.05-4.777.06-9.409 2.035-13.832 1.475-3.307 3.578-5.998 7.246-6.993 1.298-.34 2.63-.534 3.971-.578 5.721-.228 11.452-.247 17.166-.586C50.723.069 70.482.499 90.244 1.159c2.691.09 5.388.237 8.077.152a7.96 7.96 0 0 1 5.782 2.255c10.154 9.026 20.247 18.123 30.52 27.012 3.55 3.073 4.769 6.645 4.816 11.232.175 16.842.639 33.682.993 50.523zM93.404 9.47c-1.975-.155-3.634-.376-5.296-.404q-21.214-.356-42.433-.648c-6.394-.088-12.789-.127-19.184-.166-3.249-.02-6.505-.122-9.746.046-4.524.235-5.923 1.539-6.736 5.972a43.7 43.7 0 0 0-.57 12.733 69 69 0 0 1 .402 7.391q.102 59.446.155 118.89-.032 1.18.09 2.354c.673 5.103 3.368 8.524 9.167 8.754 21.664.853 43.328.862 65 .495 10.888-.185 21.779-.277 32.669-.401 2.579-.03 5.163.071 7.737-.045 5.162-.234 7.394-2.447 7.351-7.503-.079-8.861-.301-17.721-.48-26.582-.092-4.601-.187-9.204-.344-13.802-.369-10.881-.953-21.758-1.119-32.641-.186-12.122 0-24.25.009-36.375 0-.863-.087-1.726-.135-2.61a7.5 7.5 0 0 0-1.155-.184c-6.846.138-13.692.353-20.539.394a26 26 0 0 1-6.326-.728c-4.228-1.04-5.56-2.67-6.006-7-.403-3.905-.665-7.825-1.015-11.736-.472-5.24-.967-10.481-1.496-16.204m31.406 26.38.139-.711-22.228-20.169-.512.335 3.306 21.71z"/></g><defs><clipPath id="a"><path fill="#fff" d="M.11.01h141.112v173.93H.11z"/></clipPath></defs></svg>
